X:3
T:Come if you can. THO2.003
O:London
Q:200
M:2/4
L:1/8
Q:1/4=100
B:Thompson's Compleat Coll. of 200 Favourite Country Dances, vol.2,1765
Z:Transcribed and edited by Fynn Titford-Mock, 2007
Z:abc's:AK/Fiddler's Companion/VMP 2009
K:D
DF/A/ DF/A/|A/F/D/F/ [e/E][c/C][B/B,][A/A,] |DF/A/ d/f/e/d/|\
c/A/E/^G/ [AA]-[AA,] :|
|:Ac/e/ g/e/c/A/|Ad/f/ a/f/d/A/|F/A/d/a/ E/G/c/g/|f/d/A/c/ dD:|

